X:141
T:Balmoral
M:C
L:1/8
R:Strathspey
K:A
E||:"A"C>A E>A "D"Fc|"G"d>B "A"c>A "E"Gc|"A"C>A E>A "D"Ff|!
"A"3(ecA "E"3(EdB "A"cA a>e "D"fg|"a"a>e c>A "E7"Gd|"A"c>A a>e "D"ff|
"A"3(ecA "E7"3(EdB "A"eD|!
"A"c>A a>e "D"fg|"A"a>e c>A "E7"Gd|"A"3(AEA 3(cAc 3(ece 3(agf|
"A"3(e-cA "e7"3(Edb "A"c

